symbols/web/shopping_cart/materialsymbolssharp/shopping_cart_wght300fill1_20px.svg

<svg xmlns="http://www.w3.org/2000/svg" height="20" width="20"><path d="M6 17.958q-.625 0-1.062-.437-.438-.438-.438-1.063t.438-1.062q.437-.438 1.062-.438t1.062.438q.438.437.438 1.062t-.438 1.063q-.437.437-1.062.437Zm8.062 0q-.624 0-1.062-.437-.438-.438-.438-1.063T13 15.396q.438-.438 1.062-.438.626 0 1.063.438.437.437.437 1.062t-.437 1.063q-.437.437-1.063.437ZM3.458 13.833l2.375-4.312-3-6.313H1.25V1.875h2.438l.791 1.646h13.125l-3.875 7H6.812L5.729 12.5h9.833v1.333Z"/></svg>

<svg xmlns="http://www.w3.org/2000/svg" height="20" width="20"><path d="M6 17.958Q5.375 17.958 4.938 17.521Q4.5 17.083 4.5 16.458Q4.5 15.833 4.938 15.396Q5.375 14.958 6 14.958Q6.625 14.958 7.062 15.396Q7.5 15.833 7.5 16.458Q7.5 17.083 7.062 17.521Q6.625 17.958 6 17.958ZM14.062 17.958Q13.438 17.958 13 17.521Q12.562 17.083 12.562 16.458Q12.562 15.833 13 15.396Q13.438 14.958 14.062 14.958Q14.688 14.958 15.125 15.396Q15.562 15.833 15.562 16.458Q15.562 17.083 15.125 17.521Q14.688 17.958 14.062 17.958ZM3.458 13.833 5.833 9.521 2.833 3.208H1.25V1.875H3.688L4.479 3.521H17.604L13.729 10.521H6.812L5.729 12.5H15.562V13.833Z"/></svg>
